lib/healthicons/icons/outline/typography/R.svg

<svg fill="none" height="48" viewBox="0 0 48 48" width="48" xmlns="http://www.w3.org/2000/svg"><path clip-rule="evenodd" d="m13 12c0-1.6569 1.3431-3 3-3h10c4.9706 0 9 4.0294 9 9 0 3.4119-1.8983 6.3785-4.6936 7.9045l4.3769 8.7539c.7409 1.4819.1403 3.2839-1.3417 4.0249-1.4819.7409-3.2839.1403-4.0249-1.3417l-5.1708-10.3416h-5.1459v9c0 1.6569-1.3431 3-3 3s-3-1.3431-3-3zm3-1c-.5523 0-1 .4477-1 1v24c0 .5523.4477 1 1 1s1-.4477 1-1v-10c0-.5523.4477-1 1-1h6.7639c.3788 0 .7251.214.8945.5528l5.4472 10.8944c.247.494.8476.6942 1.3416.4472s.6942-.8476.4472-1.3416l-4.8344-9.6688c-.1252-.2505-.1397-.542-.0399-.8036s.3047-.4694.5649-.5729c2.5882-1.0291 4.415-3.5562 4.415-6.5075 0-3.866-3.134-7-7-7zm1 3c0-.5523.4477-1 1-1h8c2.7614 0 5 2.2386 5 5s-2.2386 5-5 5h-8c-.5523 0-1-.4477-1-1zm2 1v6h7c1.6569 0 3-1.3431 3-3s-1.3431-3-3-3z" fill="#333" fill-rule="evenodd"/></svg>

<svg width="48" height="48" viewBox="0 0 48 48" fill="none" xmlns="http://www.w3.org/2000/svg">
<path fill-rule="evenodd" clip-rule="evenodd" d="M13 12C13 10.3431 14.3431 9 16 9L26 9C30.9706 9 35 13.0294 35 18C35 21.4119 33.1017 24.3785 30.3064 25.9045L34.6833 34.6584C35.4242 36.1403 34.8236 37.9423 33.3416 38.6833C31.8597 39.4242 30.0577 38.8236 29.3167 37.3416L24.1459 27L19 27L19 36C19 37.6569 17.6569 39 16 39C14.3431 39 13 37.6569 13 36L13 12ZM16 11C15.4477 11 15 11.4477 15 12L15 36C15 36.5523 15.4477 37 16 37C16.5523 37 17 36.5523 17 36L17 26C17 25.4477 17.4477 25 18 25L24.7639 25C25.1427 25 25.489 25.214 25.6584 25.5528L31.1056 36.4472C31.3526 36.9412 31.9532 37.1414 32.4472 36.8944C32.9412 36.6474 33.1414 36.0468 32.8944 35.5528L28.06 25.884C27.9348 25.6335 27.9203 25.342 28.0201 25.0804C28.1199 24.8188 28.3248 24.611 28.585 24.5075C31.1732 23.4784 33 20.9513 33 18C33 14.134 29.866 11 26 11L16 11ZM17 14C17 13.4477 17.4477 13 18 13L26 13C28.7614 13 31 15.2386 31 18C31 20.7614 28.7614 23 26 23L18 23C17.4477 23 17 22.5523 17 22L17 14ZM19 15L19 21L26 21C27.6569 21 29 19.6569 29 18C29 16.3431 27.6569 15 26 15L19 15Z" fill="#333333"/>
</svg>
